X:1
T:6 Gesänge, Op. 14
T:Liebesfrühling
T:5. Liebesfruhling. The Spring of Love.
T:Robert Franz
T:6 Gesänge, Op. 14
T:Nikolaus Lenau
T:Creative Commons copyright waiver (CC0 1.0 Universal) 
T:Creative Commons copyright waiver (CC0 1.0 Universal) 
T:Creative Commons copyright waiver (CC0 1.0 Universal) 
C:Robert Franz
Z:Nicholaus Lenau
Z:Creative Commons copyright waiver (CC0 1.0 Universal)
Z:
%%score 1 { ( 2 4 5 ) | ( 3 6 ) }
L:1/8
Q:1/4=60
M:2/4
K:D
V:1 treble nm="Singstimme."
V:2 treble nm="Pianoforte." snm="Pno."
V:4 treble 
V:5 treble 
V:3 bass 
V:6 bass 
V:1
!p!"^Andantino." (B/c/) | d3/2 B/ F B | (A F2) (D/E/) | F3/2 G/ A E | F2 z (B/c/) | d3/2 B/ F B | %6
w: Ich _|sah den Lenz ein-|mal _ er- *|blüh'n im schön- sten|Thal; ich *|sah der Lie- be|
w: I _|saw the spring a-|gain _ Strew *|ro- ses o'er the|plain; I _|saw in her dear|
 (A F2) (D/E/) | F3/2 G/ F ^E | F2 z!p! =c | B A (GB/) A/ |!>(! (G2 F)!>)! (E/F/) | %11
w: Licht * im _|schön- sten An- ge-|sicht. Und|wandl' ich nun * al-|lein _ im *|
w: eyes * The _|light of love a-|rise. And|if a- broad * I|rove _ When *|
 G3/2 A/ (Bd/) =c/ |!>(! (B2!>)! A)!mf! (B/^c/) | (dc/) B/!>(! e c!>)! | A2 z!p! (D/E/) | %15
w: Früh- ling durch * den|Hain, * er- *|scheint * aus je- dem|Strauch ihr *|
w: Spring a- dorns * the|grove, * In _|ev'- * ry tran- quil|place I _|
 F3/2 G/[Q:1/4=40]"^riten." A E | F2 z[Q:1/4=60]"^a tempo" (B/c/) | d3/2 B/ F B | %18
w: An- ge- sicht mir|auch. Und *|seh' ich sie am|
w: see her love- ly|face. And *|if, when Spring is|
 (A F2)!p! (D/E/) | F3/2 G/ F ^E | F2 z (B/c/) | d3/2 B/ F B | (A F2) (D/E/) | F A d F/ G/ | %24
w: Ort, * wo *|längst der Früh- ling|fort, so _|spriesst ein Lenz und|schallt * um *|ih- re sü- sse Ge-|
w: gone, * She *|seeks the vale a-|lone, A- *|gain the Spring shines|warm * A- *|round her heav- en- ly|
!<(! A4-!<)! |!>(! A2!>)! z2 | z2 z |] %27
w: stalt.|_||
w: form.|_||
V:2
!<(! ([DB]/[Fc]/!<)! |!>(! [Bd]2!>)!!p! FG |!p!!>(! A F2)!>)! ([F,D]/[A,E]/ | [DF]>[DG] [CEA]2 | %4
 [DF]2) z!<(! ([DB]/[Fc]/!<)! |!>(! [Bd]2!>)!!p! FG |!p!!>(! A F2)!>)! ([F,D]/[A,E]/ | %7
!<(! [DF]>G!<)!F!>(!^E!>)! | [A,CF]2) z!p! [^DA=c] | ([=GB][FA][EG][=CF] | %10
!>(! (([G,B,-E]2!>)! [F,B,^D])))"_cresc." (E/[DF]/ |!<(! [EG]G/[FA]/!<)!!ff! B>A | %12
!>(! (([B,D-G]2 [A,DF])))!>)!!mf! ([DB]/[G^c]/ |!<(! dc/d/!<)! e2 | %14
!>(! [CFA]2- [CFA])!>)!!p! (([F,D]/[A,E]/ |!<(! [DF]>)[DG]!<)!!>(! [EA])!pp! ([B,D]/[CE]/!>)! | %16
!<(! [DF]>[EG]!<)![FA])!<(! ([DB]/[Fc]/!<)! | [Bd]2!>(! FG!>)! |!>(! (A F2))!>)!!p! (D/E/ | %19
!<(! [DF]>[DG]!<)!F!>(!^E | [A,CF]2)!>)! z!<(! (B/[^Ac]/ | [Bd]2!<)!!>(! F=G!>)! | %22
!>(! A F2)!>)! (([F,D]/[A,E]/ |!<(! F)A!<)!dF/G/ |!>(! [DA]2- [DA])!>)!!p! (D/[CE]/ | %25
!<(! [A,DF]>[B,DG]!<)!F{/F}E/>!>(!D/ | [F,D]2-!>)! [F,D]) |] %27
V:3
!p! z | [B,,,F,,]2- [B,,,F,,] z |!ped! (([F,,,F,,] [D,,,D,,]2))!ped-up! z | z2 z!ped! (([A,,,A,,] | %4
 [D,,D,]2))!ped-up! z2 | [B,,,F,,]2- [B,,,F,,] z |!ped! (([F,,,F,,] [D,,,D,,]2))!ped-up! z | %7
 z2 (C,C,, | F,,2) z B,, | (^C,^D,E,A,, | B,,2 B,,,) (G,,/B,,/ | E,B,,/D,/ G,=C, | %12
 D,2 D,,) (G,/E,/ | B,,E,/D,/ C,2 | F, F,,/G,,/ A,,2-) | A,,4- | A,,2"^a tempo" z2 | %17
 [B,,,F,,]2- [B,,,F,,] z |!ped! (([F,,,F,,] [D,,,D,,]2))!ped-up! z | (B,,2 C,C,, | %20
 F,,2) z (D,,/F,,/ | B,,2-) B,, z |!ped! (([F,,,F,,] [D,,,D,,]2))!ped-up! z | %23
 (DC [B,D][A,C]/[G,B,]/ | [F,A,]2- [F,A,]) (F,,/A,,/ | D,2 A,,2- | A,,2- A,,) |] %27
V:4
 x | x2 [B,D]2 | [A,D]2- [A,D] x | DC/B,/ A,2- | A,2 x x | x2 [B,D]2 | [A,D]2- [A,D] x | %7
 DC/B,/[I:staff +1]A,^G, | x4 |[I:staff -1] =E B,2 A, | x3 B, | B, =D2 =C | x3 B | %13
 [FB][GB]- [GB]2 | x4 | DC/B,/ [A,C] x | A,2 x2 | x2 [B,D]2 | [A,D]2- [A,D] ([F,^A,] | %19
 F,>)B,[I:staff +1]=A,^G, |[I:staff -1] x2 x F | F2 [B,D]2 | [A,D]2- [A,D] x | F2 FD | x3 A, | %25
 x2 A,G, | x3 |] %27
V:5
 x | x4 | x4 | x4 | x4 | x4 | x4 | x2 C2 | x4 | x4 | x4 | x2 GE | x4 | x4 | x4 | x4 | x4 | x4 | %18
 x4 | x2 C2 | x4 | x4 | x4 | x4 | x4 | x2 C2 | x3 |] %27
V:6
 x | x4 | x4 | x4 | x4 | x4 | x4 | x4 | x2 x x | x4 | x4 | x4 | x4 | x4 | F,2- F, z | %15
 z2 z"^riten." (A,,, | D,,2) x2 | x4 | x4 | x4 | x4 | x4 | x4 | x4 | x4 | x2 A,,A,,, | D,,2- D,, |] %27

